material/.icons/material/badge-account-alert.svg

<svg xmlns="http://www.w3.org/2000/svg" viewBox="0 0 24 24"><path d="M15 3h-3v3H8V3H5a2 2 0 00-2 2v16a2 2 0 002 2h10a2 2 0 002-2V5a2 2 0 00-2-2m-5 5a2 2 0 012 2 2 2 0 01-2 2 2 2 0 01-2-2 2 2 0 012-2m4 8H6v-1c0-1.33 2.67-2 4-2s4 .67 4 2v1M11 5H9V1h2v4m3 14H6v-1h8v1m-4 2H6v-1h4v1m9-9V7h2v5h-2m0 4v-2h2v2h-2z"/></svg>

<?xml version="1.0" encoding="UTF-8"?><!DOCTYPE svg PUBLIC "-//W3C//DTD SVG 1.1//EN" "http://www.w3.org/Graphics/SVG/1.1/DTD/svg11.dtd"><svg xmlns="http://www.w3.org/2000/svg" xmlns:xlink="http://www.w3.org/1999/xlink" version="1.1" id="mdi-badge-account-alert" width="24" height="24" viewBox="0 0 24 24"><path d="M15,3H12V6H8V3H5A2,2 0 0,0 3,5V21A2,2 0 0,0 5,23H15A2,2 0 0,0 17,21V5A2,2 0 0,0 15,3M10,8A2,2 0 0,1 12,10A2,2 0 0,1 10,12A2,2 0 0,1 8,10A2,2 0 0,1 10,8M14,16H6V15C6,13.67 8.67,13 10,13C11.33,13 14,13.67 14,15V16M11,5H9V1H11V5M14,19H6V18H14V19M10,21H6V20H10V21M19,12V7H21V12H19M19,16V14H21V16H19Z" /></svg>
